X: 34
T:Jenny Lind
% Nottingham Music Database
S:Kevin Briggs, via EF
M:4/4
L:1/4
K:D
P:A
A/2G/2|"D"FA "A7/e"GB|"D/f+"Af f/2e/2f|"Em"Ge "A7"e/2^d/2e|"D"Fd "A7"dA/2G/2|
"D""Bm"FA "A7/e""A7/c+"GB|"D/f+""D"Af f/2e/2f|"G"gf "A7"e/2g/2f/2e/2|"D"df d:|
K:G
P:B
e/2f/2|"Em""C"g3/2f/2 "D7/f+""C"e/2g/2f/2e/2|"G"dB B/2A/2B|"Am"cA "D7"A/2G/2A|\
"G"BG Ge/2f/2|
"Em""C"g3/2f/2 "D7/f+""C"e/2g/2f/2e/2|"G"dB B/2A/2B|"D7"cA A/2c/2B/2A/2|\
"G"GB G:|<end>
<start>
